!!!OTL: Hochzeitslied (186), S. 405
!!!id: T0364
**kern
*clefG2
*k[]
*G:
{4d
=1
4d
4g
4g
4b
=2
4b
8a
8g
4a}
=3
{8a
8b
=4
4cc
4b
4b
8a
8g
=5
4a}
2r
=6
{8a
8b
=7
2cc
2b
=8
2a}
4r
=9
{8a
8b
=10
4cc
4cc
4dd
4b
=11
4b
4a
4cc}
=12
{4a
=13
4b
4b
4dd
4b
=14
4b
4a
4cc}
=15
{4a
=16
2b
2a
=17
4g
4b
4dd}
=18
{4cc
=19
2b
2a
=20
2g}
4r
==
*-
!!!minrhy: 8
!!!meters: 4/4 ]  ZZ[7
!!!cut: Hochzeitslied (186), S. 405
!!!reg: Luxemburg
!!!trd: Singendes Volk, Esch-Alzette, 1937 posth.
!!!rhy1: X_  X_X_X_X_  X_XXX_
!!!rhy2: XX  X_X_X_XX  X_0__
!!!key: T0364  08  G 4/4 ]  ZZ[7
!!!mod: PENTATONIK DUR ?]  AMBITUS[8
!!!kad: 2224451
!!!akz: -5132_432_432_4534_3534_3215_321_
!!!fot: 'a__b__bv_c__cw_bs'bs'
!!!for: 'a__b__c__d__dv_cw_cv_
!!!fok: '/__^__^__~a_~a_/__\__
!! PHRAS[AUFTAKTIG]
!!!fkt: Hochzeits-, Ehestandslied, religiöses Lied
!!!bem: Heffingen, fff Anna Kimmel, 1907
!! THILL; Mathias
!! PR[42] 2K[0] 2G[7] 3K[9] 3G[4] 4A[2] 4Ü[0] 5A[0] 6K[0] 6G[2]
!! 7K[0] 7G[0] 8A[0] MEHR[0] SI[23] ABS[57] SR[7] SP[16]
!! ST[21] 2k[7] 2g[21] 3k[5] 3g[2] 4d[0] 4ü[0] 5d[0] 6k[0] 6g[0]
!! 7k[0] 7g[0] 8d[0] mehr[0] si[35] dm[-12] sr[28] sp[7]
!! 1F[60] 2F[40] 3F[0] 4F[0] LF[0] 2P[0] 3P[0] 4P[0] TRI[0] DF[2] AB[60]
!! TF[0] U3K[0] U3[0] U4[0] U4Ü[0] U5[0] U6K[0] U6[0] U7K[0] U7[0]
!! N1[7] N2K[0] N2[9] N3K[0] N3[28] N4[12] N4Ü[0] N5[36] N6K[0] N6[9]
!!!n7k: 0] N7[0] O1[0] O2K[0] O2[0] O3K[0] O3[0] HÖ[0
